resources/icons/20px/cycle.svg

<?xml version="1.0" encoding="UTF-8"?>
<svg width="20px" height="20px" viewBox="0 0 20 20" version="1.1" xmlns="http://www.w3.org/2000/svg" xmlns:xlink="http://www.w3.org/1999/xlink">
    <title>Top choice Copy</title>
    <g id="Top-choice-Copy" stroke="none" stroke-width="1" fill="none" fill-rule="evenodd">
        <path d="M16,10 C18.209139,10 20,11.790861 20,14 C20,16.209139 18.209139,18 16,18 C13.790861,18 12,16.209139 12,14 C12,11.790861 13.790861,10 16,10 Z M4,10 C6.209139,10 8,11.790861 8,14 C8,16.209139 6.209139,18 4,18 C1.790861,18 0,16.209139 0,14 C0,11.790861 1.790861,10 4,10 Z M11.2987789,4.45681776 L11.3858963,4.54590193 L13.316,6.778 L15.3641856,7.48638531 C15.8488837,7.65392138 16.1222506,8.15686136 16.0143729,8.64578363 L15.9826331,8.75820397 C15.815097,9.24290208 15.312157,9.51626896 14.8232348,9.4083913 L14.7108144,9.37665146 L12.4093112,8.58113606 C12.2845423,8.53800966 12.1699685,8.47075702 12.0719084,8.38365759 L11.979587,8.29010106 L10.593,6.687 L8.702,8.669 L10.7480935,10.9431318 C10.8858193,11.096154 10.9722798,11.2871471 10.9972743,11.489529 L11.0048134,11.6121122 L11.0048134,15.8524314 C11.0048134,16.4047161 10.5570982,16.8524314 10.0048134,16.8524314 C9.4919776,16.8524314 9.06930628,16.4663912 9.01154117,15.9690525 L9.00481344,15.8524314 L9.004,11.995 L6.59585387,9.31935179 C6.27530581,8.96320235 6.25576754,8.43583177 6.5326005,8.05903338 L6.61544496,7.96024515 L9.90579761,4.50987373 C10.2840266,4.11325044 10.9031604,4.09933338 11.2987789,4.45681776 Z M16,12 C14.8954305,12 14,12.8954305 14,14 C14,15.1045695 14.8954305,16 16,16 C17.1045695,16 18,15.1045695 18,14 C18,12.8954305 17.1045695,12 16,12 Z M4,12 C2.8954305,12 2,12.8954305 2,14 C2,15.1045695 2.8954305,16 4,16 C5.1045695,16 6,15.1045695 6,14 C6,12.8954305 5.1045695,12 4,12 Z M13.5,2 C14.3284271,2 15,2.67157288 15,3.5 C15,4.32842712 14.3284271,5 13.5,5 C12.6715729,5 12,4.32842712 12,3.5 C12,2.67157288 12.6715729,2 13.5,2 Z" id="Combined-Shape" fill="#000000"></path>
    </g>
</svg>

<svg xmlns="http://www.w3.org/2000/svg" viewBox="0 0 20 20">
  <path d="M16 10a4 4 0 1 1 0 8 4 4 0 0 1 0-8M4 10a4 4 0 1 1 0 8 4 4 0 0 1 0-8m7.299-5.543.087.089 1.93 2.232 2.048.708a1 1 0 0 1 .65 1.16l-.031.112a1 1 0 0 1-1.16.65l-.112-.031-2.302-.796a1 1 0 0 1-.337-.197l-.092-.094-1.387-1.603-1.891 1.982 2.046 2.274a1 1 0 0 1 .25.547l.007.122v4.24a1 1 0 0 1-1.993.117l-.007-.117-.001-3.857-2.408-2.676a1 1 0 0 1-.063-1.26l.082-.099 3.29-3.45a1 1 0 0 1 1.394-.053M16 12a2 2 0 1 0 0 4 2 2 0 0 0 0-4M4 12a2 2 0 1 0 0 4 2 2 0 0 0 0-4m9.5-10a1.5 1.5 0 1 1 0 3 1.5 1.5 0 0 1 0-3"/>
</svg>
